X:56
T:Steyrer Tanz in G, nr. 14
C:traditionell
R:Steirer
A:Hallstatt, Salzkammergut
B:Corpus Musicae Popularis Austriacae (COMPA), 5.Band: J.M.Schmalnauer " Tanz Musik", Verlag Boehlau, Wien 1996
S:manuscript des Johann Michael Schmalnauer um 1820
N:im der quelle in G
Z:abc transcription Simon Wascher
F:http://simonwascher.info/TradArchiv/
M:3/4
L:1/8
K:G
V:1
%violino 1mo
d2 bdc'd | a2 fdfa | d2 adbd | g2 bdgb |\
d2 bdc'd | a2 fdfa | d2 adbd | "in D"g6 :|
V:2
%violino 2do
TB2 (cD)(dD) | Tc2 ADAc | A2 cDdD | B2 dDBd |\
TB2 (cD)(dD) | Tc2 ADAc | A2 cDdD | B6 :|
